dist/svg/static/time-climate2-large.svg

<svg xmlns="http://www.w3.org/2000/svg" width="48" height="48" viewBox="0 0 48 48"><path d="M35 42v-1.419l2.065-1.729c.321-.268.613-.52.876-.755s.498-.46.705-.671.385-.415.536-.607c.15-.193.275-.382.374-.566.1-.185.173-.367.221-.546s.073-.362.073-.546a1.72 1.72 0 0 0-.109-.619 1.25 1.25 0 0 0-.342-.493c-.155-.139-.353-.247-.593-.325s-.529-.117-.863-.117c-.26 0-.519.02-.777.06a6.896 6.896 0 0 0-1.414.369c-.209.079-.393.157-.55.234v-1.115c.14-.088 2.027-.719 3.443-.563C40.063 32.75 41 33.634 41 35.53s-4.844 5.5-4.844 5.5h5.406V42H35z"/><path fill="none" stroke="currentColor" d="M23.5 20.5c1.7 0 3 1.3 3 3s-1.3 3-3 3-3-1.3-3-3 1.3-3 3-3z"/><path fill="none" stroke="currentColor" stroke-linejoin="round" d="M32 39.4c-2.5 1.4-5.4 2.1-8.5 2.1-9.9 0-18-8.1-18-18s8.1-18 18-18 18 8.1 18 18c0 2.3-.4 4.5-1.2 6.5M23.5 20.5V9"/><path fill="none" stroke="currentColor" d="M26.5 23.5H34" fill="currentColor"/></svg>

<?xml version="1.0" encoding="UTF-8" standalone="no"?>
<svg width="48px" height="48px" viewBox="0 0 48 48" version="1.1" xmlns="http://www.w3.org/2000/svg" xmlns:xlink="http://www.w3.org/1999/xlink">
    <!-- Generator: sketchtool 46.2 (44496) - http://www.bohemiancoding.com/sketch -->
    <title>time-climate2-large</title>
    <desc>Created with sketchtool.</desc>
    <defs></defs>
    <g id="icons-published" stroke="none" stroke-width="1" fill="none" fill-rule="evenodd">
        <g id="briefing" transform="translate(-2016.000000, -2074.000000)"></g>
        <g id="time-climate2-large">
            <path d="M35,42 L35,40.6 L37.1,38.9 C37.4,38.6 37.7,38.4 38,38.1 C38.3,37.8 38.5,37.6 38.7,37.4 C38.9,37.2 39.1,37 39.2,36.8 C39.4,36.6 39.5,36.4 39.6,36.2 C39.7,36 39.8,35.8 39.8,35.7 C39.8,35.6 39.9,35.3 39.9,35.2 C39.9,35 39.9,34.8 39.8,34.6 C39.7,34.4 39.6,34.2 39.5,34.1 C39.3,34 39.1,33.9 38.9,33.8 C38.7,33.7 38.4,33.7 38,33.7 C37.7,33.7 37.5,33.7 37.2,33.8 C36.7,33.9 36.2,34 35.8,34.2 C35.6,34.3 35.4,34.4 35.3,34.4 L35.3,33.3 C35.4,33.2 37.3,32.6 38.7,32.7 C40.1,32.9 41.1,33.7 41.1,35.6 C41.1,37.5 36.2,41 36.2,41 L41.6,41 L41.6,42 L35,42 Z" id="Shape" fill="#000000" fill-rule="nonzero"></path>
            <path d="M23.5,20.5 C25.2,20.5 26.5,21.8 26.5,23.5 C26.5,25.2 25.2,26.5 23.5,26.5 C21.8,26.5 20.5,25.2 20.5,23.5 C20.5,21.8 21.8,20.5 23.5,20.5 Z" id="Shape" stroke="#000000"></path>
            <path d="M32,39.4 C29.5,40.8 26.6,41.5 23.5,41.5 C13.6,41.5 5.5,33.4 5.5,23.5 C5.5,13.6 13.6,5.5 23.5,5.5 C33.4,5.5 41.5,13.6 41.5,23.5 C41.5,25.8 41.1,28 40.3,30 M23.5,20.5 L23.5,9" id="Shape" stroke="#000000" stroke-linejoin="round"></path>
            <path d="M26.5,23.5 L34,23.5" id="Shape" stroke="#000000"></path>
        </g>
    </g>
</svg>
